X:1
T:Danubio Azul
T:Danubio Azul
T:Arreglo: Dario Roberto Hernández
T:Johann Strauss
T:Transcripción: Dario Roberto Hernández - Junio 2020
C:Johann Strauss
Z:Transcripción: Dario Roberto Hernández - Junio 2020
%%score { 1 | 2 }
L:1/8
Q:1/4=100
M:3/4
K:C
V:1 treble nm="Piano" snm="Pno."
V:2 treble-8 
V:1
 C2 E2 G2 | G4 G2 | G4 E2 | E4 C2 | C2 E2 G2 | G4 G2 | G4 F2 | F4 B,2 | B,2 D2 A2 | A4 A2 | A4 F2 | %11
 F4 B,2 | B,2 D2 A2 | A4 A2 | A4 E2 | E4 z2 |] %16
V:2
 z6 | [CEG]6 | [CEG]6 | [CEG]6 | z6 | [DFG]6 | [DFG]6 | [DFG]6 | z6 | [DFA]6 | [DFA]6 | [DFG]6 | %12
 z6 | [DFG]6 | [DFG]6 | [CEG]6 |] %16

